X: 7898
T:Swedish Polka
R:Polka
O:Sweden
M:2/4
K:G
B2cB A2BA|G2D2 G2B2|A2D2 A2c2|B2G2 B2d2|\
B2cB A2BA|G2D2 G2B2|A2D2 AcBA|G2B2 G4::\
EEGG EEGG|EEGG EEGG|DDGG DDGG|DDGG DDGG|\
A3A A2B2|c4 A4|1 B3B B2c2|d4 B4:|2\
G3G B2A2|G4 G4|]
